static/assets/images/networks/moonbase.svg

<svg xmlns="http://www.w3.org/2000/svg" fill="none" viewBox="0 0 512 512"><path fill="#000" d="M256 512c141.385 0 256-114.615 256-256S397.385 0 256 0 0 114.615 0 256s114.615 256 256 256"/><path fill="#53CBC9" d="M446.701 379.402H363.09a6.6 6.6 0 0 1-4.459-2.038 6.583 6.583 0 0 1 0-9.088 6.6 6.6 0 0 1 4.459-2.038h83.611a6.62 6.62 0 0 1 4.88 1.809 6.59 6.59 0 0 1 1.517 7.37 6.6 6.6 0 0 1-3.771 3.58 6.6 6.6 0 0 1-2.626.405M282.653 379.402H66.323a6.62 6.62 0 0 1-4.88-1.809 6.59 6.59 0 0 1-2.051-4.773 6.58 6.58 0 0 1 2.051-4.773 6.618 6.618 0 0 1 4.88-1.809h216.33a6.6 6.6 0 0 1 4.46 2.038 6.583 6.583 0 0 1 0 9.088 6.6 6.6 0 0 1-4.46 2.038"/><path fill="#53CBC9" d="M398.907 412.672a6.6 6.6 0 0 1-4.659-1.925 6.57 6.57 0 0 1-1.93-4.649V106.99a6.58 6.58 0 0 1 2.043-4.449 6.615 6.615 0 0 1 9.109 0 6.59 6.59 0 0 1 2.043 4.449v299.172a6.57 6.57 0 0 1-1.958 4.613 6.6 6.6 0 0 1-4.648 1.897M325.365 228.185a6.6 6.6 0 0 1-4.66-1.926 6.57 6.57 0 0 1-1.93-4.648V106.926a6.57 6.57 0 0 1 1.93-4.649 6.6 6.6 0 0 1 9.319 0 6.57 6.57 0 0 1 1.93 4.649v114.685a6.57 6.57 0 0 1-1.93 4.648 6.6 6.6 0 0 1-4.659 1.926M108.088 412.672a6.6 6.6 0 0 1-4.665-1.925 6.58 6.58 0 0 1-1.94-4.649V106.99a6.58 6.58 0 0 1 2.043-4.449 6.615 6.615 0 0 1 9.109 0 6.59 6.59 0 0 1 2.043 4.449v299.172a6.57 6.57 0 0 1-1.953 4.607 6.6 6.6 0 0 1-4.637 1.903"/><path fill="#53CBC9" d="M349.606 147.122H66.323a6.6 6.6 0 0 1-4.66-1.926 6.566 6.566 0 0 1 0-9.297 6.6 6.6 0 0 1 4.66-1.925h283.283c1.748 0 3.424.692 4.66 1.925a6.566 6.566 0 0 1 0 9.297 6.6 6.6 0 0 1-4.66 1.926M148.058 287.303a6.586 6.586 0 0 1-6.065-4.051 6.56 6.56 0 0 1 1.4-7.146l109.023-108.767a6.596 6.596 0 0 1 7.185-1.419 6.6 6.6 0 0 1 3.565 3.562 6.58 6.58 0 0 1-.004 5.034 6.6 6.6 0 0 1-1.431 2.133L152.708 285.415a6.56 6.56 0 0 1-4.65 1.888M150.607 340.79a6.602 6.602 0 0 1-6.029-4.067 6.58 6.58 0 0 1 1.38-7.129L278.87 196.946a6.596 6.596 0 0 1 7.185-1.419 6.6 6.6 0 0 1 3.565 3.562 6.58 6.58 0 0 1-.004 5.034 6.6 6.6 0 0 1-1.431 2.133L155.417 338.855a6.58 6.58 0 0 1-4.81 1.935M193.495 353.906a6.61 6.61 0 0 1-6.042-4.06 6.58 6.58 0 0 1 1.377-7.137l104.726-104.495a6.59 6.59 0 0 1 4.66-1.931 6.62 6.62 0 0 1 4.663 1.923 6.564 6.564 0 0 1 .008 9.301l-104.726 104.48a6.62 6.62 0 0 1-4.666 1.919"/><path fill="#F45B5B" d="M213.408 369.373a114.1 114.1 0 0 1-35.849-5.774c-47.794-15.499-71.651-55.007-63.603-105.888a147.47 147.47 0 0 1 40.082-78.536c22.591-22.904 50.856-35.525 79.571-35.525 2.133 0 4.313 0 6.413.208h.193c28.49 0 56.339 18.283 74.472 48.785a7.57 7.57 0 0 0 2.961 2.8 7.6 7.6 0 0 0 7.845-.459 7.56 7.56 0 0 0 2.613-3.124c1.716-3.807 3.207-7.31 4.602-10.525C342.953 157.63 345.374 152 371.427 152c5.227 0 11.48.256 19.688.816 2.117.112 2.582.911 2.806 1.295 4.81 8.43-14.109 44.163-26.63 67.819-8.257 15.596-15.392 29.063-17.284 36.325a7.28 7.28 0 0 0 .417 4.895c1.395 3.199 2.806 6.398 4.249 9.725 15.295 35.317 34.342 79.271 76.492 79.271a66 66 0 0 0 11.688-1.087h.273a6 6 0 0 1-.706 1.087c-10.485 11.053-22.991 16.667-37.18 16.667-28.153 0-58.856-22.857-71.378-53.151a7.6 7.6 0 0 0-2.798-3.481 7.64 7.64 0 0 0-4.272-1.318 7.48 7.48 0 0 0-5.916 2.895c-27.112 34.821-67.338 55.615-107.468 55.615m18.438-193.141c-16.322 0-32.627 7.998-45.95 22.713-20.667 22.761-30.896 57.807-27.352 93.748.049.545.168 1.083.352 1.599 9.235 25.032 28.09 38.82 53.085 38.82 29.468 0 62.191-20.282 77.823-48.225 9.764-17.451 9.796-43.523.096-63.421-14.237-29.159-34.871-45.234-58.054-45.234"/></svg>

<svg width="512" height="512" viewBox="0 0 512 512" fill="none" xmlns="http://www.w3.org/2000/svg">
<path d="M256 512C397.385 512 512 397.385 512 256C512 114.615 397.385 0 256 0C114.615 0 0 114.615 0 256C0 397.385 114.615 512 256 512Z" fill="black"/>
<path d="M446.701 379.402H363.09C361.397 379.319 359.8 378.589 358.631 377.364C357.462 376.138 356.81 374.512 356.81 372.82C356.81 371.128 357.462 369.502 358.631 368.276C359.8 367.051 361.397 366.321 363.09 366.238H446.701C447.595 366.194 448.488 366.332 449.327 366.643C450.166 366.954 450.933 367.431 451.581 368.047C452.229 368.662 452.745 369.403 453.098 370.223C453.45 371.044 453.632 371.927 453.632 372.82C453.632 373.713 453.45 374.596 453.098 375.417C452.745 376.237 452.229 376.978 451.581 377.593C450.933 378.209 450.166 378.686 449.327 378.997C448.488 379.308 447.595 379.446 446.701 379.402Z" fill="#53CBC9"/>
<path d="M282.653 379.402H66.3229C65.4291 379.446 64.5357 379.308 63.6969 378.997C62.8581 378.686 62.0914 378.209 61.4433 377.593C60.7951 376.978 60.2791 376.237 59.9265 375.417C59.5739 374.596 59.392 373.713 59.392 372.82C59.392 371.927 59.5739 371.044 59.9265 370.223C60.2791 369.403 60.7951 368.662 61.4433 368.047C62.0914 367.431 62.8581 366.954 63.6969 366.643C64.5357 366.332 65.4291 366.194 66.3229 366.238H282.653C284.347 366.321 285.944 367.051 287.113 368.276C288.282 369.502 288.934 371.128 288.934 372.82C288.934 374.512 288.282 376.138 287.113 377.364C285.944 378.589 284.347 379.319 282.653 379.402Z" fill="#53CBC9"/>
<path d="M398.907 412.672C397.16 412.672 395.484 411.979 394.248 410.747C393.012 409.514 392.318 407.842 392.318 406.098V106.99C392.401 105.3 393.133 103.708 394.361 102.541C395.589 101.375 397.22 100.725 398.915 100.725C400.611 100.725 402.242 101.375 403.47 102.541C404.698 103.708 405.429 105.3 405.513 106.99V406.162C405.496 407.897 404.792 409.555 403.555 410.775C402.317 411.994 400.647 412.676 398.907 412.672Z" fill="#53CBC9"/>
<path d="M325.365 228.185C323.617 228.185 321.941 227.492 320.705 226.259C319.47 225.026 318.775 223.354 318.775 221.611V106.926C318.775 105.182 319.47 103.51 320.705 102.277C321.941 101.045 323.617 100.352 325.365 100.352C327.113 100.352 328.789 101.045 330.024 102.277C331.26 103.51 331.954 105.182 331.954 106.926V221.611C331.954 223.354 331.26 225.026 330.024 226.259C328.789 227.492 327.113 228.185 325.365 228.185Z" fill="#53CBC9"/>
<path d="M108.088 412.672C106.339 412.672 104.662 411.98 103.423 410.747C102.185 409.515 101.487 407.843 101.483 406.098V106.99C101.566 105.3 102.298 103.708 103.526 102.541C104.754 101.375 106.385 100.725 108.08 100.725C109.776 100.725 111.407 101.375 112.635 102.541C113.863 103.708 114.594 105.3 114.678 106.99V406.162C114.661 407.894 113.959 409.55 112.725 410.769C111.491 411.988 109.825 412.672 108.088 412.672Z" fill="#53CBC9"/>
<path d="M349.606 147.122H66.3229C64.5752 147.122 62.8992 146.429 61.6634 145.196C60.4277 143.963 59.7334 142.291 59.7334 140.548C59.7334 138.804 60.4277 137.132 61.6634 135.899C62.8992 134.666 64.5752 133.974 66.3229 133.974H349.606C351.354 133.974 353.03 134.666 354.266 135.899C355.502 137.132 356.196 138.804 356.196 140.548C356.196 142.291 355.502 143.963 354.266 145.196C353.03 146.429 351.354 147.122 349.606 147.122Z" fill="#53CBC9"/>
<path d="M148.058 287.303C146.76 287.299 145.491 286.912 144.412 286.192C143.333 285.471 142.492 284.448 141.993 283.252C141.495 282.056 141.362 280.74 141.611 279.468C141.86 278.197 142.48 277.027 143.393 276.106L252.416 167.339C253.028 166.729 253.755 166.245 254.556 165.916C255.356 165.586 256.213 165.416 257.079 165.417C257.945 165.418 258.802 165.589 259.601 165.92C260.401 166.251 261.127 166.736 261.739 167.347C262.35 167.959 262.835 168.684 263.166 169.482C263.497 170.281 263.666 171.136 263.666 172C263.665 172.863 263.494 173.718 263.162 174.516C262.83 175.314 262.344 176.038 261.731 176.649L152.708 285.415C152.095 286.019 151.369 286.496 150.571 286.82C149.773 287.144 148.919 287.308 148.058 287.303Z" fill="#53CBC9"/>
<path d="M150.607 340.79C149.314 340.776 148.053 340.383 146.981 339.66C145.909 338.937 145.074 337.915 144.578 336.723C144.083 335.53 143.95 334.219 144.195 332.952C144.44 331.684 145.053 330.517 145.958 329.594L278.87 196.946C279.482 196.336 280.21 195.852 281.01 195.523C281.81 195.193 282.667 195.023 283.533 195.024C284.399 195.025 285.256 195.196 286.055 195.527C286.855 195.858 287.581 196.343 288.193 196.954C288.804 197.566 289.289 198.291 289.62 199.089C289.951 199.888 290.12 200.743 290.12 201.607C290.119 202.47 289.948 203.325 289.616 204.123C289.284 204.921 288.798 205.645 288.185 206.256L155.417 338.855C154.789 339.486 154.039 339.983 153.212 340.316C152.385 340.648 151.499 340.81 150.607 340.79Z" fill="#53CBC9"/>
<path d="M193.495 353.906C192.2 353.895 190.937 353.504 189.863 352.782C188.788 352.06 187.951 351.039 187.453 349.846C186.956 348.653 186.822 347.34 187.066 346.071C187.311 344.802 187.924 343.633 188.83 342.709L293.556 238.214C294.168 237.602 294.894 237.117 295.693 236.786C296.493 236.455 297.35 236.284 298.216 236.283C299.081 236.283 299.939 236.452 300.739 236.782C301.539 237.112 302.266 237.595 302.879 238.206C303.492 238.816 303.978 239.54 304.31 240.338C304.642 241.136 304.813 241.991 304.814 242.854C304.815 243.718 304.645 244.574 304.314 245.372C303.984 246.17 303.499 246.895 302.887 247.507L198.161 351.987C196.921 353.217 195.244 353.908 193.495 353.906Z" fill="#53CBC9"/>
<path d="M213.408 369.373C201.225 369.374 189.122 367.425 177.559 363.599C129.765 348.1 105.908 308.592 113.956 257.711C118.988 228.071 132.972 200.671 154.038 179.175C176.629 156.271 204.894 143.65 233.609 143.65C235.742 143.65 237.922 143.65 240.022 143.858H240.215C268.705 143.858 296.554 162.141 314.687 192.643C315.399 193.829 316.423 194.797 317.648 195.443C318.873 196.088 320.252 196.387 321.635 196.306C323.018 196.226 324.352 195.768 325.493 194.984C326.634 194.201 327.538 193.12 328.106 191.86C329.822 188.053 331.313 184.55 332.708 181.335C342.953 157.63 345.374 152 371.427 152C376.654 152 382.907 152.256 391.115 152.816C393.232 152.928 393.697 153.727 393.921 154.111C398.731 162.541 379.812 198.274 367.291 221.93C359.034 237.526 351.899 250.993 350.007 258.255C349.575 259.886 349.722 261.615 350.424 263.15C351.819 266.349 353.23 269.548 354.673 272.875C369.968 308.192 389.015 352.146 431.165 352.146C435.086 352.132 438.998 351.768 442.853 351.059H443.126C442.932 351.446 442.695 351.811 442.42 352.146C431.935 363.199 419.429 368.813 405.24 368.813C377.087 368.813 346.384 345.956 333.862 315.662C333.299 314.249 332.324 313.037 331.064 312.181C329.804 311.326 328.316 310.867 326.792 310.863C325.65 310.862 324.522 311.123 323.497 311.625C322.471 312.127 321.574 312.856 320.876 313.758C293.764 348.579 253.538 369.373 213.408 369.373ZM231.846 176.232C215.524 176.232 199.219 184.23 185.896 198.945C165.229 221.706 155 256.752 158.544 292.693C158.593 293.238 158.712 293.776 158.896 294.292C168.131 319.324 186.986 333.112 211.981 333.112C241.449 333.112 274.172 312.83 289.804 284.887C299.568 267.436 299.6 241.364 289.9 221.466C275.663 192.307 255.029 176.232 231.846 176.232Z" fill="#F45B5B"/>
</svg>
